packages/ui-icons/svg/Solid/text-subscript.svg

<svg viewBox="0 0 1920 1920" version="1.1" xmlns="http://www.w3.org/2000/svg">
    <path d="M1469.70084,963 C1595.52646,963 1711.92542,1040.38029 1759.60527,1155.357 C1807.42174,1270.60714 1777.63891,1397.88814 1680.09331,1495.50214 C1632.14022,1543.48886 1575.44355,1596.80743 1521.34263,1646.57143 L1521.34263,1646.57143 L1777.09243,1646.57143 L1777.09243,1920 L1230.61849,1920 C1155.06846,1920 1094,1858.88871 1094,1783.28571 L1094,1783.28571 L1094,1723.54157 C1094,1683.89443 1111.21393,1646.298 1140.99676,1620.32229 C1143.04604,1618.40829 1355.35116,1433.844 1486.91477,1302.18814 C1496.88792,1292.208 1512.73566,1273.47814 1507.1343,1259.94343 C1502.48928,1248.59614 1486.91477,1236.42857 1469.70084,1236.42857 C1419.69847,1236.42857 1360.13281,1292.34471 1339.3668,1319.41414 L1339.3668,1319.41414 L1121.3237,1154.53671 C1136.07849,1134.84986 1270.51108,963 1469.70084,963 Z M1094,142 L1094,415.454545 L683.75,415.454545 L683.75,1646 L410.25,1646 L410.25,415.454545 L0,415.454545 L0,142 L1094,142 Z" stroke="none" stroke-width="1" fill-rule="evenodd"/>
</svg>

<svg viewBox="0 0 1920 1920" version="1.1" xmlns="http://www.w3.org/2000/svg">
    <path d="M0 142h1094v273.455H683.75V1646h-273.5V415.455H0V142zm1680.093 1353.502c-47.953 47.987-104.65 101.305-158.75 151.07h255.75V1920h-546.475c-75.55 0-136.618-61.111-136.618-136.714v-59.744c0-39.648 17.214-77.244 46.997-103.22 2.049-1.914 214.354-186.478 345.918-318.134 9.973-9.98 25.82-28.71 20.22-42.245-4.646-11.347-20.22-23.514-37.434-23.514-50.003 0-109.568 55.916-130.334 82.985l-218.043-164.877C1136.078 1134.85 1270.51 963 1469.7 963c125.825 0 242.224 77.38 289.904 192.357 47.817 115.25 18.034 242.531-79.512 340.145z" stroke="none" stroke-width="1" fill-rule="evenodd"/>
</svg>
